X: 070
T: Tarbert Ferry (march)
N: 202033
C: "Pipe-Major C.Macdonald Frazier"
L: 1/8
M: 4/4
R: march
Q: 1/4=160
K: G
D | "G"GFGA B2 G2 | "G"d2 B2 g2 d2 | "C"efge "G"d2 BG | "Am"E2 A2 "D"A3 F |
"G"GFGA B2 G2 | "G"d2 B2 g2 d2 | "C"eged "G"B2 AG | "C"E2 "D"F2 "G"G3 :|
B/d/ | "G"g2 fg "Am"a2 ga | "Em"ba g2 "C"e2 ge | "G"d2 Bd "Em"gdBG | "Am"E2 A2 "D"A3 d |
"G"g2 fg "Am"a2 ga | "Em"ba g2 "C"e3 g | "Am7"abge "G"d2 BG | "C"E2 "D"F2 "G"G3 :|
%%%%%%%%%%%%%%%%%%%%%%%%%%%%%%%%%%%%%%%%%%%%%%%%%%%
